icons/carets-left.svg

<svg xmlns="http://www.w3.org/2000/svg" width="24" height="24" viewBox="0 0 24 24">
  <path d="M20,5.41421356 C20.5522847,5.41421356 21,5.86192881 21,6.41421356 L21,6.41421356 L21,17.5857864 C21,17.8510029 20.8946432,18.1053568 20.7071068,18.2928932 C20.3165825,18.6834175 19.6834175,18.6834175 19.2928932,18.2928932 L19.2928932,18.2928932 L13.7071068,12.7071068 C13.3165825,12.3165825 13.3165825,11.6834175 13.7071068,11.2928932 L13.7071068,11.2928932 L19.2928932,5.70710678 C19.4804296,5.5195704 19.7347835,5.41421356 20,5.41421356 Z M10,5.41421356 C10.5522847,5.41421356 11,5.86192881 11,6.41421356 L11,6.41421356 L11,17.5857864 C11,17.8510029 10.8946432,18.1053568 10.7071068,18.2928932 C10.3165825,18.6834175 9.68341751,18.6834175 9.29289322,18.2928932 L9.29289322,18.2928932 L3.70710678,12.7071068 C3.31658249,12.3165825 3.31658249,11.6834175 3.70710678,11.2928932 L3.70710678,11.2928932 L9.29289322,5.70710678 C9.4804296,5.5195704 9.73478351,5.41421356 10,5.41421356 Z"/>
</svg>

<svg xmlns="http://www.w3.org/2000/svg" viewBox="0 0 24 24">
  <path d="M20 5.41a1 1 0 0 1 1 1V17.6a1 1 0 0 1-1.7.7l-5.6-5.58a1 1 0 0 1 0-1.42l5.6-5.58a1 1 0 0 1 .7-.3zm-10 0a1 1 0 0 1 1 1V17.6a1 1 0 0 1-1.7.7l-5.6-5.58a1 1 0 0 1 0-1.42l5.6-5.58a1 1 0 0 1 .7-.3z"/>
</svg>
